X: 3
T: The Old Maids Of Galway
R: reel
M: 4/4
L: 1/8
K: Emin
e2 dB eBdB|A2 GA Bd d2|e2 dB eBdB|A2 GA BGBd|
e2 dB eBdB|A2 GA BAAB|GB B2 GBdB|A2 GA BG G2|
g2 fg egde|g2 fg eaaf|g2 fg egdB|A2 AG BGBd|
g2 fg egde|gbag eaaf|gbag egdB|A2 GA BG G2:|


Tune 976	Setting 21214

